!!!COM: Haydn, Franz Joseph
!!!CDT: 1732/03/31/-1809/05/31/
!!!CNT: Austrian
!!!OTL: Sonata No. 33 in C minor
!!!SCT: Hob. XVI:20
!!!OMV: Mvmt. 3
!!!OMD: Finale: Allegro
!!!ODT: ~1771///
!!!SMS: Universal Edition 3, Haydn Piano Sonatas, Vol. 3, No. 26
!!!ONB: Stich und Druck von Jos. Eberle & Co. Wien VII. Seidengasse 3-9
**kern	**kern	**dynam
*staff2	*staff1	*staff1
*>[A,A,B,B]	*>[A,A,B,B]	*>[A,A,B,B]
*>norep[A,B]	*>norep[A,B]	*>norep[A,B]
*>A	*>A	*>A
*clefF4	*clefG2	*clefG2
*k[b-e-a-]	*k[b-e-a-]	*k[b-e-a-]
*c:	*c:	*c:
*M3/4	*M3/4	*M3/4
*MM132	*MM132	*MM132
4r	4cc`\	f
*clefG2	*	*
=1	=1	=1
!	!ffq/	!.
4c`/ 4e-`/	(8ee-\L	.
.	16dd\L	.
.	16cc\JJ	.
4d`/ 4f`/	4bn`\)	.
4r	4dd`\	.
=2	=2	=2
!	!ggq/	!.
4d`/ 4f`/	(8ff\L	.
.	16ee-\L	.
.	16dd\JJ	.
4e-/ 4g/	4cc`\)	.
4r	(8.gg\L	.
.	16ccc\Jk)	.
=3	=3	=3
(4e-/ 4g/	(8.ccc\L	.
.	16bbn\Jk)	.
4d/ 4f/	(8.bb\L	.
.	16aa-\Jk)	.
4c/) 4e-/	(8.aa-\L	.
.	16gg\Jk)	.
=4	=4	=4
4Bn/ 4d/	2gg\	.
4G/ 4B/	.	.
!	!(ggq/	!.
4B`/ 4g`/	(8ff\L)	.
.	16ee-\L	.
.	16dd\JJ	.
=5	=5	=5
!	!ffq/	!.
4c`/ 4g`/	8ee-\L	.
.	16dd\L	.
.	16cc\JJ	.
4r	8.bn\L	.
.	16cc\Jk	.
4A-`/ 4f#`/	8.cc\L	.
.	32b\LL	.
.	32cc\JJJ)	.
=6	=6	=6
*	*^	*
!	!.	!(ccq\	!.
4G`/ 4g`/	2dd/	2bn\)	.
4r	.	.	.
4r	4r	4c`/	p
*clefF4	*	*	*
*	*v	*v	*
=7	=7	=7
!	!(fq/	!.
4r	(8e-/L)	.
.	16d/L	.
.	16c/JJ	.
4D`\ 4F`\	4Bn`/)	.
4r	4d`/	.
=8	=8	=8
!	!(gq/	!.
4r	(8f/L)	.
.	16e-/L	.
.	16d/JJ	.
4E-`\ 4G`\	4c`/)	.
4r	(16cc\LL	.
.	16bn\	.
.	16dd\	.
.	16cc\JJ	.
=9	=9	=9
2.r	8ee-`\L)	.
.	8dd`\	.
.	8cc`\	.
.	8b-`\	.
.	8a-`\	.
.	8g`\J	.
=10	=10	=10
4r	(8g/L	.
.	8f#/	.
(4Bn\	8dd`/)	.
.	8fn`/	.
4c\)	(8f/	.
.	8e-/J)	.
=11	=11	=11
4F\	8r	.
.	(8d/L	.
4r	8f/	.
.	8a-/	.
4G\	8g/	.
.	8Bn/J	.
=12	=12	=12
4r	4c/)	f
4CC`/	4r	.
(16C/LL	4r	.
16BBn/	.	.
16D/	.	.
16C/JJ	.	.
=13	=13	=13
4E-`\)	8r	.
.	8ee-\L	.
4r	8dd\	.
.	8cc\	.
4r	8b-\	.
.	8a-\J	.
=14	=14	=14
8r	[2g/	.
8e-\L	.	.
8d\	.	.
8c\	.	.
8B-\	(8g/L]	.
8A-\J	8a-/J	.
=15	=15	=15
8G\	8b-/)	.
8E-`/L	(16g/LL	.
.	16b-/JJ	.
8D`/	16f/LL	.
.	16b-/	.
8C`/	16e-/	.
.	16b-/JJ	.
8BB-`/	16d/LL	.
.	16b-/	.
8AA-`/J	16c/	.
.	16b-/JJ	.
=16	=16	=16
4GG/	8B-`/L)	.
.	(8ee-/	p
4r	8gg/	.
.	8ee-/	.
4r	8dd/	.
.	8cc/J)	.
=17	=17	=17
*^	*^	*
8r	2.F\	(4b-/	4r	p
8c/L	.	.	.	.
8e-/J	.	2an/)	8r	.
4.r	.	.	8g\L	.
.	.	.	8f\	.
.	.	.	8e-\J	.
*	*	*v	*v	*
=18	=18	=18	=18
(4e-/	2.B-\	8r	.
.	.	(8a-\L	.
2d/)	.	8ff\	.
.	.	8dd\	.
.	.	8b-\	.
.	.	8a-\J)	.
=19	=19	=19	=19
*	*	*^	*
8r	(2.E-\	(4a-/	4.r	.
8B-/L	.	.	.	.
8e-/J	.	[2g/)	.	.
4.r	.	.	8f\L	.
.	.	.	8e-\	.
.	.	.	8d\J	.
*v	*v	*	*	*
=20	=20	=20	=20
2AA-/	8g/L]	2.c\	<
.	8f/	.	.
.	8cc/	.	.
.	8a-/	.	.
4AAn/)	8f/	.	.
.	8e-/J	.	.
*	*v	*v	*
=21	=21	=21
4BBB-/ 4BB-/	16d/LL	f
.	16f/	.
.	16e-/	.
.	16g/JJ	.
8d`\L	16f/LL	.
.	16a-/	.
8e-`\J	16g/	.
.	16b-/JJ	.
8f`\	8a-/	.
8r	8r	.
=22	=22	=22
4BBB-/ 4BB-/	(16e-/LL	.
.	16g/	.
.	16f/	.
.	16a-/JJ	.
8e-`\L	16g/LL	.
.	16b-/	.
8f`\J	16a-/	.
.	16cc/JJ	.
8g`\	8b-\)	.
8r	8r	.
=23	=23	=23
4BBB-/ 4BB-/	(16b-\LL	.
.	16dd\	.
.	16cc\	.
.	16ee-\JJ	.
8B-`\L	16dd\LL	.
.	16ff\	.
8c`\	16ee-\	.
.	16gg\JJ	.
8d`\	16ff\LL	.
.	16aa-\	.
8e-`\J	16gg\	.
.	16bb-\JJ	.
=24	=24	=24
4f\	16aa-\LL	.
.	16bb-\	.
.	16ccc\	.
.	16bb-\JJ	.
4r	16aa-\LL	.
.	16gg\	.
.	16ff\	.
.	16ee-\JJ	.
4r	16dd\LL	.
.	16cc\	.
.	16b-\	.
.	16a-\JJ)	.
*clefG2	*	*
=25	=25	=25
8e-`/L	(16g\LL	.
.	16b-\	.
8f`/	16a-\	.
.	16cc\JJ	.
8g`/	16b-\LL	.
.	16dd\	.
8a-`/	16cc\	.
.	16ee-\JJ	.
8b-`/	16dd\LL	.
.	16ff\	.
8cc`/J	16ee-\	.
.	16gg\JJ	.
=26	=26	=26
4dd\	16ff\LL	.
.	16gg\	.
.	16aa-\	.
.	16gg\JJ	.
4r	16ff\LL	.
.	16ee-\	.
.	16dd\	.
.	16cc\JJ	.
4r	16b-/LL	.
.	16a-/	.
.	16g/	.
.	16f/JJ)	.
*clefF4	*	*
=27	=27	=27
4c`\	(16e-/LL	.
.	16d/	.
.	16e-/	.
.	16a-/JJ	.
4B-`\	16e-/LL	.
.	16d/	.
.	16e-/	.
.	16g/JJ	.
4A-`\	16e-/LL	.
.	16d/	.
.	16e-/	.
.	16cc/JJ	.
=28	=28	=28
4G`\	16e-/LL	.
.	16d/	.
.	16e-/	.
.	16b-/JJ	.
4F`\	16e-/LL	.
.	16d/	.
.	16e-/	.
.	16a-/JJ	.
4E-`\	16e-/LL	.
.	16d/	.
.	16e-/	.
.	16g/JJ)	.
*clefG2	*	*
=29	=29	=29
4cc\	(16e-/LL	p
.	16d/	.
.	16e-/	.
.	16a-/JJ	.
4b-\	16e-/LL	.
.	16d/	.
.	16e-/	.
.	16g/JJ	.
4ee-\	16e-/LL	.
.	16d/	.
.	16e-/	.
.	16cc/JJ	.
=30	=30	=30
4dd\	16e-/LL	.
.	16d/	.
.	16e-/	.
.	16b-/JJ	.
4cc\	16e-/LL	.
.	16d/	.
.	16e-/	.
.	16a-/JJ	.
4b-\	16e-/LL	.
.	16d/	.
.	16e-/	.
.	16g/JJ)	.
*clefF4	*	*
=31	=31	=31
4AAn`/	(16e-/LL	f
.	16d/	.
.	16e-/	.
.	16g-/JJ	.
4An`\	16e-/LL	.
.	16d/	.
.	16e-/	.
.	16g-/JJ	.
4r	16e-/LL	.
.	16d/	.
.	16e-/	.
.	16g-/JJ	.
=32	=32	=32
4AA-`/	16d/LL	.
.	16f/	.
.	16a-/	.
.	16cc/JJ	.
4A-`\	16b-/LL	.
.	16a-/	.
.	16gn/	.
.	16f/JJ	.
4r	16e-/LL	.
.	16d/	.
.	16c/	.
.	16B-/JJ)	.
=33	=33	=33
4G\	8r	.
.	8e-`\L	.
4r	8g`\	.
.	8b-`\	.
8r	8ee-`\J	.
8E-\	8gg\ ([8bb-\	.
=34	=34	=34
4A-\	8gg\ 8bb-\]	.
.	4ff\ 4aa-\	.
4B-\	.	.
.	4ee-\ 4gg\	.
4BB-/	.	.
.	8dd\ 8ff\)	.
=35	=35	=35
8C`\L	(16ee-\LL	.
.	16a-\	.
8c`\	16g\	.
.	16a-\JJ	.
8BB-`\	16dd/LL	.
.	16g/	.
8B-`\	16f#/	.
.	16g/JJ	.
8AA-`\	16cc/LL	.
.	16fn/	.
8A-`\J	16en/	.
.	16f/JJ	.
=36	=36	=36
8GG`/L	16b-/LL	.
.	16e-/	.
8G`/	16d/	.
.	16e-/JJ	.
8FF`/	16a-/LL	.
.	16d/	.
8F`/	16c#/	.
.	16d/JJ	.
8EE-`/	16g/LL	.
.	16e-/	.
8E-`/J	16d/	.
.	16e-/JJ)	.
=37	=37	=37
4AA-/	8r	mf
.	8Bn`/L	.
4r	8c`/	.
.	8d`/	.
4r	8e-`/	.
.	8en`/J	.
=38	=38	=38
2.r	8f`/L	.
.	(8g/	>
.	8b-/	.
.	8a-/	.
.	8g/	.
.	8f/J)	.
=39	=39	=39
8r	[2.e-/ [2.g/	p
(8AAn/L	.	.
8BB-/	.	.
8AA/	.	.
8BB-/	.	.
8AA/J	.	.
=40	=40	=40
2.BB-/)	8e-/] 8g/L]	.
.	8g/ 8b-/	.
.	8g/ 8b-/	.
.	8f/ 8a-/	.
.	8e-/ 8g/	.
.	8d/ 8f/J	.
=41	=41	=41
*^	*^	*
8r	[2.E-\	[2.e-/	8r	.
8F#/L	.	.	(8An\L	.
8G/	.	.	8B-\	.
8F#/	.	.	8A\	.
8G/	.	.	8B-\	.
8F#/J	.	.	8A\J	.
=42	=42	=42	=42	=42
8G/L	2.E-\_	2.e-/_	8B-\L)	.
8An/	.	.	8c\	.
8B-/	.	.	8d-\	.
8A/	.	.	8c\	.
(8B-/	.	.	8d-\	.
8A/J	.	.	8c\J	.
=43	=43	=43	=43	=43
8B-/L)	2.E-\_	2.e-/_	8d-\L	.
(8G/	.	.	8Bn\	.
8A-/	.	.	8c\	.
8G/	.	.	8B\	.
8A-/	.	.	8c\	.
8G/J	.	.	8B\J	.
=44	=44	=44	=44	=44
8A-/)	2.E-\]	8e-/L]	8c\L	.
8r	.	8cc/	8a-\	.
4r	.	8b-/	8g\	.
.	.	8a-/	8f\	.
4r	.	8g/	8e-\	.
.	.	8f/J	8dn\J	.
*v	*v	*	*	*
*	*v	*v	*
=45	=45	=45
[2.E-\ 2.A-\	(2.d/ 2.f/	.
=46	=46	=46
4E-\] 4G\	4e-/) 4g/	.
4r	4r	.
=:|!|:	=:|!|:	=:|!|:
*>B	*>B	*>B
4r	4ee-`\	f
*clefG2	*	*
=47	=47	=47
!	!aa-q/	!.
4e-`/ 4g`/	(8gg\L	.
.	16ff\L	.
.	16ee-\JJ	.
4f`/ 4a-`/	4dd`\)	.
4r	4ff`\	.
=48	=48	=48
!	!(bb-q/	!.
4f`/ 4a-`/	(8aa-\L)	.
.	16gg\L	.
.	16ff\JJ	.
4g`/ 4b-`/	4ee-`\)	.
4r	(8.bb-\L	.
.	16eee-\Jk)	.
=49	=49	=49
(4g/ 4b-/	(8.eee-\L	.
.	16ddd\Jk)	.
4f/ 4a-/	(8.ddd\L	.
.	16ccc\Jk)	.
4e-/) 4g/	(8.ccc\L	.
.	16bb-\Jk)	.
=50	=50	=50
4d/ 4f/	2bb-\	.
4B-/ 4d/	.	.
!	!(bb-q/	!.
4d`/ 4b-`/	(8aa-\L)	.
.	16gg\L	.
.	16ff\JJ	.
=51	=51	=51
!	!aa-q/	!.
4e-`/ 4b-`/	8gg\L	.
.	16ff\L	.
.	16ee-\JJ	.
4r	8.dd\L	.
.	16ee-\Jk)	.
4c`/ 4an`/	(8.ee-\L	.
.	32dd\LL	.
.	32ee-\JJJ)	.
=52	=52	=52
*	*^	*
!	!.	!(ee-q\	!.
4B-`/ 4b-`/	2ff/	2dd\)	.
4r	.	.	.
4r	4r	4r	.
*	*v	*v	*
=53	=53	=53
2.r	4r	.
.	4r	.
.	4f`/	p
=54	=54	=54
!	!(b-q/	!.
4r	(8a-/L)	.
.	16g/L	.
.	16f/JJ	.
*clefF4	*	*
4G`\ 4B-`\	4en`/)	.
4r	(16e/LL	.
.	16f/	.
.	16g/	.
.	16a-/JJ	.
=55	=55	=55
!	!ccq/	!.
4r	8b-/L	.
.	16a-/L	.
.	16g/JJ	.
4A-`\ 4c`\	4f`/)	.
4r	(16ff\LL	.
.	16een\	.
.	16gg\	.
.	16ff\JJ	.
=56	=56	=56
2.r	8aa-`\L)	.
.	8gg`\	.
.	8ff`\	.
.	8ee-`\	.
.	8dd`\	.
.	8cc`\J	.
*clefG2	*	*
=57	=57	=57
8r	(4cc\	.
(8a-/L	.	.
8g/)	8bn\L)	.
8f`/	8aa-`\	mf
8e-`/	8gg`\	.
8d`/J	8ff`\J	.
=58	=58	=58
(8c/L	(4ff\	.
8d/	.	.
8e-/J)	8ee-\L)	.
8r	8dd`\	.
4r	8cc`\	.
.	8b-`\J	.
=59	=59	=59
8r	(4b-\	.
(8g/L	.	.
8f/)	8an\L)	.
8e-`/	8gg`\	.
8d`/	8ff`\	.
8c`/J	8ee-`\J	.
=60	=60	=60
(8B-/L	(4ee-\	.
8c/	.	.
8d/J)	8dd\L)	.
8r	8cc`\	.
4r	8b-`\	.
.	8an`\J	.
=61	=61	=61
8r	(4an/	.
(8f/L	.	.
8e-/)	8g\L)	.
8d`/	8ff`\	.
8c`/	8ee-`\	.
8B-`/J	8dd`\J	.
=62	=62	=62
(8An/L	(4dd\	.
8B-/	.	.
8c/J)	8cc\L)	<
8r	8b-`\	.
4r	8an`\	.
.	8g`\J	.
*clefF4	*	*
=63	=63	=63
8r	(4g/	.
(8e-\L	.	.
8d\)	8f#/L)	.
8c`\	8ee-`/	.
8B-`\	8dd`/	.
8An`\J	8cc`/J	.
=64	=64	=64
*^	*	*
2r	8G`\L	(8cc\L	.
.	8Fn`\	8b-\J	.
.	8E-`\	4gg\)	.
.	8D`\J	.	.
8r	4C#\	4r	.
8G/	.	.	.
=65	=65	=65	=65
(16F#/LL	4DD\ 4D\	2.r	f
16An/	.	.	.
16G/	.	.	.
16B-/JJ	.	.	.
16A`/LL	8F#\L	.	.
16c/	.	.	.
16B-`/	8G\J	.	.
16d/JJ	.	.	.
8c/)	8An`\	.	.
8r	8r	.	.
=66	=66	=66	=66
16G/LL	4DD\ 4D\	4r	.
16B-/	.	.	.
16An/	.	.	.
16c/JJ	.	.	.
4r	8G`\L	16B-/LL	.
.	.	16d/	.
.	8An`\J	16c/	.
.	.	16e-/JJ	.
4r	8B-\	8d/	.
.	8r	8r	.
=67	=67	=67	=67
16F#/LL	8DD`\L	4r	.
16An/	.	.	.
16G/	8EEn`\J	.	.
16B-/JJ	.	.	.
16A/LL	4FF#\	4r	.
16c/	.	.	.
16B-/	.	.	.
16d/JJ	.	.	.
4r	4r	16c/LL	.
.	.	16e-/	.
.	.	16d/	.
.	.	16c/JJ	.
*v	*v	*	*
=68	=68	=68
8GG`/L	16B-/LL	.
.	16d/	.
8AAn`/J	16c/	.
.	16e-/JJ	.
4BB-/	16d/LL	.
.	16g/	.
.	16f#/	.
.	16an/JJ	.
4r	16g/LL	.
.	16b-/	.
.	16a/	.
.	16g/JJ	.
=69	=69	=69
8D`\L	(16f#/LL	.
.	16an/	.
8En`\J	16g/	.
.	16b-/JJ	.
4F#\	16a\LL	.
.	16cc\	.
.	16b-\	.
.	16dd\JJ	.
4r	16cc\LL	.
.	16ee-\	.
.	16dd\	.
.	16cc\JJ	.
=70	=70	=70
8G`\L	16b-\LL	.
.	16dd\	.
8An`\J	16cc\	.
.	16ee-\JJ	.
4B-\	16dd\LL	.
.	16gg\	.
.	16ff#\	.
.	16aan\JJ	.
4r	16gg\LL	.
.	16bb-\	.
.	16aa\	.
.	16gg\JJ	.
*clefG2	*	*
=71	=71	=71
8d/L	(16ff#\LL)	.
.	16aan\	.
8en`/J	16gg\	.
.	16bb-\JJ	.
4f#/	16aa\LL	.
.	16ccc\	.
.	16bb-\	.
.	16ddd\JJ	.
4r	16ccc\LL	.
.	16eee-\	.
.	16ddd\	.
.	16ccc\JJ	.
=72	=72	=72
4g/	16bb-\LL	.
.	16ccc\	.
.	16ddd\	.
.	16ccc\JJ	.
4an/	16bb-\LL	.
.	16aan\	.
.	16gg\	.
.	16ff#\JJ	.
4b-/	16gg\LL	.
.	16ffn\	.
.	16ee-\	.
.	16dd\JJ	.
=73	=73	=73
*^	*	*
!	!	!ffq/	!.
4g/	4c\	8ee-\L	.
.	.	16dd\L	.
.	.	16cc\JJ	.
4g/	2d\	4b-\	.
4f#/	.	4an/	.
*v	*v	*	*
*clefF4	*	*
=74	=74	=74
8r	4g/)	.
8F#\	.	.
4G\	8r	.
.	8ee-\ (8gg\L	p
4r	8dd\ 8ffn\	.
.	8cc\ 8ee-\J	.
*clefG2	*	*
=75	=75	=75
8r	4bn\ 4dd\)	.
8f#/L	.	.
8g/J	8r	.
8r	8cc\ (8ee-\L	.
4r	8b\ 8dd\	.
.	8an\ 8cc\J	.
*clefF4	*	*
=76	=76	=76
8r	4g/ 4bn/)	.
8F#\L	.	.
8G\J	8r	.
8r	(8e-/ 8g/L	.
4r	8d/ 8f/	.
.	8c/ 8e-/J	.
=77	=77	=77
8r	4Bn/) 4d/	.
8FF#/L	.	.
*	*clefF4	*clefF4
8GG/J	8r	.
8r	8E-\ (8G\L	.
4r	8D\ 8Fn\	.
.	8C\ 8E-\J	.
=78	=78	=78
8r	4BBn/ 4D/)	.
8FFF#/L	.	.
*	*clefG2	*clefG2
8GGG/J	8r	.
8r	(8bn\L	mf
4r	8cc\	.
.	8dd\J	.
*clefG2	*	*
=79	=79	=79
!	!ffq/	!.
4c/ 4e-/	8ee-\L	>
.	16dd\L	.
.	16cc\JJ	.
4d/ 4f/	8bn\L)	<
.	(8cc\	.
4r	8cc#\	.
.	8dd\J	.
=80	=80	=80
!	!ggq/	!.
(4d/ 4f/	8ff\L	>
.	16ee-\L	.
.	16dd\JJ	.
4e-/) 4g/	8ccn\L)	<
.	(8ee-\	.
4r	8gg\	.
.	8ccc\J)	.
=81	=81	=81
(4e-/ 4g/	(8ccc\L	.
.	16bbn\Jk)	.
.	16r	.
4d/ 4f/	(8bb\L	.
.	16aa-\Jk)	.
.	16r	.
4c/) 4e-/	(8aa-\L	.
.	16gg\Jk)	.
.	16r	.
=82	=82	=82
4Bn/ 4d/	4.gg\	.
4G/ 4B/	.	.
.	(16dd\LL	.
.	16ee-\JJ	.
!	!ggq/	!.
4B`/ 4g`/	8ff\L	.
.	16ee-\L	.
.	16dd\JJ	.
=83	=83	=83
!	!ffq/	!.
4c`/ 4g`/	8ee-\L	.
.	16dd\L	.
.	16cc\JJ	.
4r	8.bn\L	.
.	16cc\Jk	.
4A-`/ 4f#`/	8.cc\L	.
.	32b\LL	.
.	32cc\JJJ)	.
=84	=84	=84
*	*^	*
!	!.	!(ccq\	!.
4G/ 4g/	2dd/	2bn\)	.
*clefF4	*	*	*
8r	.	.	.
(8Fn\L	.	.	.
8E-\	4r	4r	.
8D\J	.	.	.
*	*v	*v	*
=85	=85	=85
4C/)	8r	.
.	8cc\L	p
4r	8ee-\	.
.	8cc\	.
4r	8a-\	.
.	8g\J	.
=86	=86	=86
*^	*^	*
8r	2.D\	(4g/	4.r	.
8An/L	.	.	.	.
8c/J	.	2f#/)	.	.
4.r	.	.	8e-\L	.
.	.	.	8d\	.
.	.	.	8c\J	.
*	*	*v	*v	*
=87	=87	=87	=87
(4c/	2.G\	8r	.
.	.	(8fn/L	.
2Bn/)	.	8dd/	.
.	.	8bn/	.
.	.	8g/	.
.	.	8f/J)	.
=88	=88	=88	=88
*	*	*^	*
8r	(2.C\	4f/	4.r	.
8G/L	.	.	.	.
8c/J	.	[2e-/	.	.
4.r	.	.	8B-\L	.
.	.	.	8A-\	.
.	.	.	8G\J	.
*v	*v	*	*	*
=89	=89	=89	=89
2FF\	8e-/L]	2A-\	.
.	8d/	.	.
.	8a-/	.	.
.	8f/	.	.
4FF#\)	8d/	4r	.
.	8c/J	.	.
*	*v	*v	*
=90	=90	=90
4GGG/ 4GG/	(16Bn/LL	f
.	16d/	.
.	16c/	.
.	16e-/JJ	.
8Bn`\L	16d/LL	.
.	16f/	.
8c`\J	16e-/	.
.	16g/JJ	.
8d`\	8f/)	.
8r	8r	.
=91	=91	=91
4GG/	(16c/LL	.
.	16e-/	.
.	16d/	.
.	16f/JJ	.
8c`\L	16e-/LL	.
.	16g/	.
8d`\J	16f/	.
.	16a-/JJ	.
8e-`\	8g/)	.
8r	8r	.
=92	=92	=92
8G`\L	(16Bn/LL	.
.	16d/	.
8An`\J	16c/	.
.	16e-/JJ	.
4Bn\	16d/LL	.
.	16f/	.
.	16e-/	.
.	16g/JJ	.
4r	16f/LL	.
.	16a-/	.
.	16g/	.
.	16f/JJ	.
=93	=93	=93
8c`\L	16e-/LL	.
.	16g/	.
8d`\J	16f/	.
.	16a-/JJ	.
4e-\	16g\LL	.
.	16cc\	.
.	16bn\	.
.	16dd\JJ	.
4r	16cc\LL	.
.	16ee-\	.
.	16dd\	.
.	16cc\JJ	.
*clefG2	*	*
=94	=94	=94
8g`/L	(16bn\LL)	.
.	16dd\	.
8an`/J	16cc\	.
.	16ee-\JJ	.
4bn/	16dd\LL	.
.	16ff\	.
.	16ee-\	.
.	16gg\JJ	.
4r	16ff\LL	.
.	16aa-\	.
.	16gg\	.
.	16ff\JJ	.
=95	=95	=95
8cc`\L	16ee-\LL	.
.	16gg\	.
8dd`\J	16ff\	.
.	16aa-\JJ	.
4ee-\	16gg\LL	.
.	16ccc\	.
.	16bbn\	.
.	16ddd\JJ	.
4r	16ccc\LL	.
.	16eee-\	.
.	16ddd\	.
.	16ccc\JJ	.
=96	=96	=96
4r	16bbn\LL	.
.	16ccc\	.
.	16ddd\	.
.	16bb\JJ	.
16r	8gg\)	p
(16ff\LL	.	.
16ee-\	8r	.
16dd\JJ	.	.
16cc\LL	4r	.
16bn\	.	.
16an\	.	.
16g\JJ	.	.
=97	=97	=97
4cc\	16eee-\LL	.
.	16gg\	.
.	16ff#\	.
.	16gg\JJ	.
4b-\	16ddd\LL	.
.	16gg\	.
.	16ff#\	.
.	16gg\JJ	.
4a-/	16ccc\LL	.
.	16gg\	.
.	16ff#\	.
.	16gg\JJ	.
=98	=98	=98
4g/)	16bbn\LL	.
.	16ccc\	.
.	16ddd\	.
.	16bb\JJ	.
16r	8gg\	.
(16ff\LL	.	.
16ee-\	8r	.
16dd\JJ	.	.
16cc\LL	4r	.
16bn\	.	.
16an\	.	.
16g\JJ	.	.
=99	=99	=99
4cc\	16eee-\LL	.
.	16gg\	.
.	16ff#\	.
.	16gg\JJ	.
4b-\	16ddd\LL	.
.	16gg\	.
.	16ff#\	.
.	16gg\JJ	.
4a-/	16ccc\LL	.
.	16gg\	.
.	16ff#\	.
.	16gg\JJ	.
=100	=100	=100
4g/)	16bbn\LL	.
.	16ccc\	.
.	16ddd\	.
.	16bb\JJ	.
16r	8gg\	.
(16ffn\LL	.	.
16ee-\	8r	.
16dd\JJ	.	.
16cc\LL	4r	.
16bn\	.	.
16an\	.	.
16g\JJ	.	.
=101	=101	=101
4cc\)	16ee-\LL	.
.	16ff\	.
.	16gg\	.
.	16ee-\JJ	.
16r	8cc\	mf
(16b-/LL	.	.
16a-/	8r	.
16g/JJ	.	.
16f/LL	4r	.
16e-/	.	.
16d/	.	.
16c/JJ	.	.
=102	=102	=102
4f/	16aa-\LL	.
.	16cc\	.
.	16bn\	.
.	16cc\JJ	.
4e-/	16gg\LL	.
.	16cc\	.
.	16b\	.
.	16cc\JJ	.
4d/	16ff\LL	.
.	16cc\	.
.	16b\	.
.	16cc\JJ	.
=103	=103	=103
4c/)	16ee-\LL	.
.	16ff\	.
.	16gg\	.
.	16ee-\JJ	.
16r	8cc\	.
16b-/LL	.	.
16a-/	8r	.
16g/JJ	.	.
16f/LL	4r	.
16e-/	.	.
16d/	.	.
16c/JJ	.	.
=104	=104	=104
(4f/	16aa-\LL	mf
.	16cc\	.
.	16bn\	.
.	16cc\JJ	.
4e-/)	16gg\LL	.
.	16cc\	.
.	16b\	.
.	16cc\JJ	.
4r	16gg\LL	.
.	16cc\	.
.	16b\	.
.	16cc\JJ	.
=105	=105	=105
(4a-/	16ff\LL	.
.	16cc\	.
.	16bn\	.
.	16cc\JJ	.
4g/)	16ee-\LL	.
.	16cc\	.
.	16b\	.
.	16cc\JJ	.
4r	16ee-\LL	.
.	16cc\	.
.	16b\	.
.	16cc\JJ	.
=106	=106	=106
(4f/	16aa-\LL	.
.	16cc\	.
.	16bn\	.
.	16cc\JJ	.
4e-/)	16gg\LL	.
.	16cc\	.
.	16b\	.
.	16cc\JJ	.
4r	16gg\LL	.
.	16cc\	.
.	16b\	.
.	16cc\JJ	.
*clefF4	*	*
=107	=107	=107
4D`\ 4d`\	16ff#\LL	f
.	16cc\	.
.	16bn\	.
.	16cc\JJ	.
*clefG2	*	*
(4eee-\	16ff#\LL	.
.	16cc\	.
.	16b\	.
.	16cc\JJ	.
4aan\)	16ff#\LL	.
.	16cc\	.
.	16b\	.
.	16cc\JJ	.
*clefF4	*	*
=108	=108	=108
4G`\ 4g`\	16ffn\LL	.
.	16bn\	.
.	16a#\	.
.	16b\JJ	.
*clefG2	*	*
(4ddd\	16ff\LL	.
.	16b\	.
.	16a#\	.
.	16b\JJ	.
4gg\)	16ff\LL	.
.	16b\	.
.	16a#\	.
.	16b\JJ	.
*clefF4	*	*
=109	=109	=109
4C`\ 4c`\	16een\LL	.
.	16b-\	.
.	16an\	.
.	16b-\JJ	.
*clefG2	*	*
(4ddd-\	16ee\LL	.
.	16b-\	.
.	16a\	.
.	16b-\JJ	.
4gg\)	16ee\LL	.
.	16b-\	.
.	16a\	.
.	16b-\JJ	.
*clefF4	*	*
=110	=110	=110
4F`\ 4f`\	16ee-\LL	.
.	16an\	.
.	16g#\	.
.	16a\JJ	.
*clefG2	*	*
(4ccc\	16ee-\LL	.
.	16a\	.
.	16g#\	.
.	16a\JJ	.
4ff\)	16ee-\LL	.
.	16a\	.
.	16g#\	.
.	16a\JJ	.
*clefF4	*	*
=111	=111	=111
4BB-`\ 4B-`\	16dd/LL	.
.	16a-/	.
.	16g/	.
.	16a-/JJ	.
*clefG2	*	*
(4fff\	16dd/LL	.
.	16a-/	.
.	16g/	.
.	16a-/JJ	.
4bb-\)	16dd/LL	.
.	16a-/	.
.	16g/	.
.	16a-/JJ	.
*clefF4	*	*
=112	=112	=112
4E-`\ 4e-`\	16dd/LL	.
.	16g/	.
.	16f#/	.
.	16g/JJ	.
*clefG2	*	*
(4bb-\	16dd/LL	.
.	16g/	.
.	16f#/	.
.	16g/JJ	.
4ee-\)	16dd/LL	.
.	16g/	.
.	16f#/	.
.	16g/JJ	.
*clefF4	*	*
=113	=113	=113
4AA-`\ 4A-`\	16cc/LL	.
.	16g/	.
.	16f#/	.
.	16g/JJ	.
*clefG2	*	*
(4eee-\	16cc/LL	.
.	16g/	.
.	16f#/	.
.	16g/JJ	.
4aa-\)	16cc/LL	.
.	16g/	.
.	16f#/	.
.	16g/JJ	.
*clefF4	*	*
=114	=114	=114
4D`\ 4d`\	16cc/LL	.
.	16fn/	.
.	16en/	.
.	16f/JJ	.
*clefG2	*	*
(4aa-\	16cc/LL	.
.	16f/	.
.	16e/	.
.	16f/JJ	.
4dd\)	16cc/LL	.
.	16f/	.
.	16e/	.
.	16f/JJ	.
*clefF4	*	*
=115	=115	=115
4GG`/ 4G`/	16bn/LL	.
.	16f/	.
.	16en/	.
.	16f/JJ	.
*clefG2	*	*
(4ddd\	16b/LL	.
.	16f/	.
.	16e/	.
.	16f/JJ	.
4gg\)	16b/LL	.
.	16f/	.
.	16e/	.
.	16f/JJ	.
*clefF4	*	*
=116	=116	=116
4GG`/ 4G`/	16cc/LL	.
.	16e-/	.
.	16d/	.
.	16e-/JJ	.
*clefG2	*	*
(4gg\	16cc/LL	.
.	16e-/	.
.	16d/	.
.	16e-/JJ	.
4ee-\)	16cc/LL	.
.	16e-/	.
.	16d/	.
.	16e-/JJ	.
*clefF4	*	*
=117	=117	=117
4AA-`\ 4A-`\	16cc/LL	.
.	16f#/	.
.	16c/	.
.	16f#/JJ	.
*clefG2	*	*
(4ccc\	16cc/LL	.
.	16f#/	.
.	16c/	.
.	16f#/JJ	.
4eee-\)	16cc/LL	.
.	16f#/	.
.	16c/	.
.	16f#/JJ	.
=118	=118	=118
(4eee-\	16cc/LL	.
.	16f#/	.
.	16c/	.
.	16f#/JJ	.
4ddd\	16cc/LL	.
.	16f#/	.
.	16c/	.
.	16f#/JJ	.
4ccc\	16cc/LL	.
.	16f#/	.
.	16c/	.
.	16f#/JJ	.
=119	=119	=119
4bbn\)	16g/LL	>
.	16bn/	.
.	16g/	.
.	16d/JJ	.
*clefF4	*	*
16r	16Bn/	.
16G\LL	8.r	.
16D\	.	.
16BBn\JJ	.	.
4GG/	4r	.
=120	=120	=120
4r	4r	.
4r;	4r;	.
4r	4c`/	p
=121	=121	=121
!	!(fq/	!.
4C`\ 4E-`\	(8e-/L)	.
.	16d/L	.
.	16c/JJ	.
4D`\ 4F`\	4Bn`/)	.
4r	4d`/	.
=122	=122	=122
!	!(gq/	!.
4D`\ 4F`\	(8f/L)	.
.	16e-/L	.
.	16d/JJ	.
4E-`\ 4G`\	4c`/)	.
4r	(16cc\LL	.
.	16dd-\	.
.	16ddn\	.
.	16ee-\JJ	.
*clefG2	*	*
=123	=123	=123
4r	4cc\	.
4d`/ 4f`/	4bn\)	.
4r	(16dd\LL	.
.	16ee-\	.
.	16een\	.
.	16ff\JJ	.
=124	=124	=124
4r	4dd\	.
4e-`/ 4g`/	4cc\)	.
4e-/ 4g/	(8gg\L	f
.	[8ccc\J	.
=125	=125	=125
4d/ 4f/	8ccc\]	.
.	4bb-\	.
4c/ 4e-/	.	.
.	4aa-\	.
4B-/ 4d/	.	.
.	[8gg\	.
*clefF4	*	*
=126	=126	=126
4A-\ 4c\	8gg\]	.
.	4ff\	.
4G\ 4B-\	.	.
.	4ee-\	.
4F\ 4A-\	.	.
.	[8dd\	.
=127	=127	=127
4E-\ 4G\	8dd\]	.
.	4cc\	.
4D\ 4F\	.	.
.	4bn\	.
4C/ 4E-/	.	.
.	[8a-/	.
=128	=128	=128
4BBn/ 4D/	8a-/]	.
.	4g/	.
4Bn`\ 4d`\	.	.
.	8f/L	.
4r	8e-/	.
.	8d/J)	.
=129	=129	=129
4A-`\	(16c/LL	.
.	16Bn/	.
.	16c/	.
.	16f/JJ	.
4G`\	16c/LL	.
.	16B/	.
.	16c/	.
.	16e-/JJ	.
4F`\	16c/LL	.
.	16B/	.
.	16c/	.
.	16a-/JJ	.
=130	=130	=130
4E-`\	16c/LL	.
.	16Bn/	.
.	16c/	.
.	16g/JJ	.
4D`\	16c/LL	.
.	16B/	.
.	16c/	.
.	16f/JJ	.
4C`/	16c/LL	.
.	16B/	.
.	16c/	.
.	16e-/JJ)	.
*clefG2	*	*
=131	=131	=131
4a-/	(16c/LL	p
.	16Bn/	.
.	16c/	.
.	16f/JJ	.
4g/	16c/LL	.
.	16B/	.
.	16c/	.
.	16e-/JJ	.
4cc\	16c/LL	.
.	16B/	.
.	16c/	.
.	16a-/JJ	.
=132	=132	=132
4b-\	16c/LL	.
.	16Bn/	.
.	16c/	.
.	16g/JJ	.
4a-/	16c/LL	.
.	16B/	.
.	16c/	.
.	16f/JJ	.
4g/	16c/LL	.
.	16B/	.
.	16c/	.
.	16e-/JJ)	.
*clefF4	*	*
=133	=133	=133
4FF#`/	(16c/LL	f
.	16B-/	.
.	16c/	.
.	16e-/JJ	.
4F#`\	16c/LL	.
.	16B-/	.
.	16c/	.
.	16e-/JJ	.
4r	16c/LL	.
.	16B-/	.
.	16c/	.
.	16e-/JJ	.
=134	=134	=134
4FFn`/	16Bn/LL	.
.	16d/	.
.	16f/	.
.	16a-/JJ	.
4Fn`\	16g/LL	.
.	16f/	.
.	16e-/	.
.	16d/JJ	.
4r	16c/LL	.
.	16B/	.
.	16An/	.
.	16G/JJ)	.
=135	=135	=135
4E-\	8r	.
.	8c`/L	.
4r	8e-`/	.
.	8g`/	.
8r	8cc`/J	.
8C/	[8ee-\ ([8gg\	.
=136	=136	=136
4F\	8ee-\] 8gg\]	.
.	4dd\ 4ff\	.
4G\	.	.
.	4cc\ 4ee-\	.
4GG/	.	.
.	8bn\ 8dd\)	.
=137	=137	=137
8AA-`/L	16cc/LL	.
.	16f/	.
8A-/	16en/	.
.	16f/JJ	.
8GG`/	16b-/LL	.
.	16e-/	.
8G`/	16d/	.
.	16e-/JJ	.
8FF`/	16a-/LL	.
.	16d/	.
8F/J	16c#/	.
.	16d/JJ	.
=138	=138	=138
8EE-`/L	16g/LL	.
.	16cn/	.
8E-`/	16Bn/	.
.	16c/JJ	.
8DD`/	16f/LL	.
.	16B/	.
8D`/	16An/	.
.	16B/JJ	.
8CC`/	16e-/LL	.
.	16c/	.
8C`/J	16B/	.
.	16c/JJ	.
=139	=139	=139
4FF/	8r	.
.	8d-`/L	ff
4r	8A-`/	.
.	8f`/	.
4r	8d-`/	.
.	8a-`/J	.
=140	=140	=140
2.r	8f`\L	.
.	8dd-`\	.
.	8a-`\	.
.	8ff`\	.
.	8ee-`\	.
.	8dd-`\J	.
=141	=141	=141
2.r	8cc`/L	.
.	8dd-/	.
.	8a-`/	.
.	8g-`/	.
.	8f`/	.
.	8e-`/J	.
=142	=142	=142
2.r	(8d-/L	>
.	8c/	.
.	8d-/	.
.	8f/	.
.	8e-/	.
.	8d-/J	.
=143	=143	=143
8r	(2c/)	.
8F\ 8A-\L	.	.
8F\ 8A-\	.	.
8F\ 8A-\	.	.
8F\ 8A-\	4Bn/ 4dn/	.
8F\ 8A-\J	.	.
=144	=144	=144
8r	[2.c/) [2.e-/	p
(8FF#/L	.	.
8GG/	.	.
8FF#/	.	.
8GG/	.	.
8FF#/J	.	.
=145	=145	=145
2.GG/)	8c/] 8e-/L]	.
.	8e-/ 8g/	.
.	8e-/ 8g/	.
.	8d/ 8f/	.
.	8c/ 8e-/	.
.	8Bn/ 8d/J	.
=146	=146	=146
*^	*^	*
8r	[2.C\	2.c/	8r	.
8En/L	.	.	(8G\L	.
8F/	.	.	8A-\	.
8E/	.	.	8G\	.
8F/	.	.	8A-\	.
8E/J	.	.	8G\J	.
=147	=147	=147	=147	=147
8F/L	2.C\_	[2.c/	8A-\L)	.
8G/	.	.	8Bn\	.
8A-/	.	.	8c\	.
8G/	.	.	8B\	.
(8A-/	.	.	8c\	.
8G/J	.	.	8B\J	.
=148	=148	=148	=148	=148
8A-/L)	2.C\_	2.c/_	8c\L	.
(8F#/	.	.	8An\	.
8G/	.	.	8B-\	.
8F#/	.	.	8A\	.
8G/	.	.	8B-\	.
8F#/J	.	.	8A\J	.
=149	=149	=149	=149	=149
8G/L)	2.C\_	2.c/_	8B-\L	.
(8En/	.	.	8G\	.
8Fn/	.	.	8A-\	.
8E/	.	.	8G\	.
8F/	.	.	8A-\	.
8E/J	.	.	8G\J	.
=150	=150	=150	=150	=150
8F/)	4C\]	8c/]	8A-\	.
8A-/L	.	8f`/L	8r	.
8G/	4r	8e-`/	2r	.
8F/	.	8d`/	.	.
8E-/	4r	8c`/	.	.
8D/J	.	8Bn`/J	.	.
*	*	*v	*v	*
=151	=151	=151	=151
2.D/ 2.F/	2.CC'\ 2.C'\	(2.Bn/	pp
=152	=152	=152	=152
4E-/ 4G/	4CC\ 4C\	4c/)	.
4r	4r	4r	.
*v	*v	*	*
==:|!	==:|!	==:|!
*-	*-	*-
!!!ENC: Craig Stuart Sapp
!!!END: 2009/08/27/
